X: 37177
T: Sir John Fenwick's The Flower Amang Them A'
R: waltz
M: 3/4
K: Gmajor
G3 A BC|d2 de fg|d2 de fg|ed cB AG|
A2 AB cd|e2 e2 g2|e2 e2 g2|e4 d2|
G2 GA Bc|d2 e2 g2|d2 e2 g2|ed cB AG|
c2 dc BA|B2 cB AG|A2 B2 d2|e4 d2||
g2 G2 B2|g2 G2 B2|g2 G2 g2|ed cB AG|
a2 A2 c2|a2 A2 c2|a2 A2 a2|e4 d2|
g2 G2 B2|g2 G2 B2|g2 G2 g2|ed cB AG|
c2 dc BA|B2 cB AG|A2 B2 d2|e4 d2||

